icon-svg/ikea-felsisk.svg

<svg xmlns="http://www.w3.org/2000/svg" fill="#44739e" viewBox="0 0 24 24"><path d="m15.126 11.912.37.015v-.048l-.085-.064v-.016l-.059-5.296h-.145l.033 5.306-.114.067zm-6.591-.443.37.015v-.049l-.085-.065v-.016l-.059-5.35h-.145l.034 5.36-.115.067zm.016-5.279-.002-.253h.278l.003.273 6.311.466-.001-.24h.278v.033l.003.228.275.02.687-.675-8.137-.543-.683.618Zm7.976-.283v-.482l-8.16-.53v.467l1.858.125zM8.2 5.384v-.443l-.684.645v.417l.257-.233Zm11.241 10.087a1.274 1.206 0 0 1-1.274 1.206 1.274 1.206 0 0 1-1.274-1.206 1.274 1.206 0 0 1 1.274-1.206 1.274 1.206 0 0 1 1.274 1.206m-5.405.906a1.208 1.208 0 1 0-1.274-1.207 1.244 1.244 0 0 0 1.274 1.207m-4.096-.222a1.208 1.208 0 1 0-1.274-1.206 1.243 1.243 0 0 0 1.274 1.206M4.488 14.7a1.243 1.243 0 0 0 1.274 1.2 1.208 1.208 0 1 0 0-2.413A1.244 1.244 0 0 0 4.488 14.7M18.1 13.034l-.007.143-.376.027-.107 1.044a1.4 1.4 0 0 1 1.114.016v-1.036l-.444-.047.008-.139zm-4.11-.288-.007.143-.375.027-.108 1.055a1.386 1.386 0 0 1 1.116.019v-1.049l-.445-.048.008-.138zm-4.115-.274-.007.142-.375.028-.112 1.086a1.392 1.392 0 0 1 1.119.015v-1.077l-.445-.047.009-.139ZM5.7 12.179l-.007.143-.375.027-.118 1.129a1.39 1.39 0 0 1 1.123.013v-1.118l-.445-.047.009-.139Zm-2.309 4.07L22 17.467l-.035-.387-18.523-1.243Zm17.08-3.255 1.094 3.992.386.026-1.147-4.222h-.192zm.907 4.5-.97.921.006.416.196-.005 1.295-1.288-.334-.032zM3.316 16.311l.001-.007h-.003l.033-.295-1.305 1.184-.042.342.19.035 1.429-1.239Zm-1.033 1.267 18.047 1.246v-.396L2.623 17.283Zm18.442-5.211-5.618-.389-.048-.002v-.001l-6.087-.422v.001l-.504-.021v-.015l-4.337-.3-.012.338 16.656 1.105zm-17.204.103h-.292l-1.175 4.622.383-.347zm.461-.499.069-.387.012-.317-.827.84v.242h.316ZM3.73 15.79l.633-4.151-.249-.016c-.029.346-.364 2.374-.663 4.148Zm16.726 1.643-.324-.021.116.944.103.006.209-.208zm-.81-3.999.422 3.451.312.021-.494-3.425zm.898-.662-.254-.039-.64.629.001.001.255.053.504-.45zm-16.181-.725 1.276.089.006-.122.32.014-.008.13 3.858.268.006-.119.319.013-.007.128 3.796.264.007-.131.319.014-.008.139 3.792.263.006-.128.32.014-.008.136 1.362.095.231-.228-15.553-1.064zm15.207 1.312-.005-.007.013-.014-.79-.055.001.149.796.056zM3.657 12.356l.284.02.02-.13-.141-.01zm.657.046.923.066.014-.132-.917-.064zm5.113.226-3.039-.212v.134l3.025.215zm4.113.288-2.976-.208v.139l2.962.21zm4.11.287-2.971-.207v.144l2.956.21zm3.058-.438-.06-.004.023.003v.001zm-16.717-.713-.136.119.117.009Z"/></svg>

<?xml version="1.0" encoding="UTF-8"?>
<svg width="24px" fill="#44739e" height="24px" viewBox="0 0 24 24" version="1.1" xmlns="http://www.w3.org/2000/svg" xmlns:xlink="http://www.w3.org/1999/xlink">
            <path d="m 15.126,11.912 0.37,0.015 V 11.879 L 15.411,11.815 V 11.799 L 15.352,6.503 h -0.145 l 0.033,5.306 -0.114,0.067 z m -6.591,-0.443 0.37,0.015 V 11.435 L 8.82,11.37 V 11.354 L 8.761,6.004 H 8.616 l 0.034,5.36 -0.115,0.067 z M 8.551,6.19 8.549,5.937 H 8.827 L 8.83,6.21 15.141,6.676 15.14,6.436 h 0.278 v 0.033 l 0.003,0.228 0.275,0.02 L 16.383,6.042 8.246,5.499 7.563,6.117 Z M 16.527,5.907 V 5.425 l -8.16,-0.53 v 0.467 l 1.858,0.125 z M 8.2,5.384 V 4.941 L 7.516,5.586 V 6.003 L 7.773,5.77 Z m 11.241,10.087 a 1.274,1.206 0 0 1 -1.274,1.206 1.274,1.206 0 0 1 -1.274,-1.206 1.274,1.206 0 0 1 1.274,-1.206 1.274,1.206 0 0 1 1.274,1.206 z m -5.405,0.906 a 1.208,1.208 0 1 0 -1.274,-1.207 1.244,1.244 0 0 0 1.274,1.207 z M 9.94,16.155 A 1.208,1.208 0 1 0 8.666,14.949 1.243,1.243 0 0 0 9.94,16.155 Z M 4.488,14.7 a 1.243,1.243 0 0 0 1.274,1.2 1.208,1.208 0 1 0 0,-2.413 1.244,1.244 0 0 0 -1.274,1.213 z m 13.612,-1.666 -0.007,0.143 -0.376,0.027 -0.107,1.044 a 1.4,1.4 0 0 1 1.114,0.016 v -1.036 l -0.444,-0.047 0.008,-0.139 z m -4.11,-0.288 -0.007,0.143 -0.375,0.027 -0.108,1.055 a 1.386,1.386 0 0 1 1.116,0.019 v -1.049 l -0.445,-0.048 0.008,-0.138 z M 9.875,12.472 9.868,12.614 9.493,12.642 9.381,13.728 A 1.392,1.392 0 0 1 10.5,13.743 V 12.666 L 10.055,12.619 10.064,12.48 Z M 5.7,12.179 5.693,12.322 5.318,12.349 5.2,13.478 a 1.391,1.391 0 0 1 1.123,0.013 V 12.373 L 5.878,12.326 5.887,12.187 Z M 3.391,16.249 22,17.467 21.965,17.08 3.442,15.837 Z m 17.08,-3.255 1.094,3.992 0.386,0.026 -1.147,-4.222 h -0.192 z m 0.907,4.5 -0.97,0.921 0.006,0.416 0.196,-0.005 1.295,-1.288 -0.334,-0.032 z M 3.316,16.311 3.317,16.304 H 3.314 L 3.347,16.009 2.042,17.193 2,17.535 2.19,17.57 3.619,16.331 Z M 2.283,17.578 20.33,18.824 V 18.428 L 2.623,17.283 Z M 20.725,12.367 15.107,11.978 15.059,11.976 V 11.975 L 8.972,11.553 v 10e-4 L 8.468,11.533 v -0.015 l -4.337,-0.3 -0.012,0.338 16.656,1.105 z M 3.521,12.47 H 3.229 l -1.175,4.622 0.383,-0.347 z m 0.461,-0.499 0.069,-0.387 0.012,-0.317 -0.827,0.84 v 0.242 H 3.552 Z M 3.73,15.79 4.363,11.639 4.114,11.623 C 4.085,11.969 3.75,13.997 3.451,15.771 Z m 16.726,1.643 -0.324,-0.021 0.116,0.944 0.103,0.006 0.209,-0.208 z m -0.81,-3.999 0.422,3.451 0.312,0.021 -0.494,-3.425 z m 0.898,-0.662 -0.254,-0.039 -0.64,0.629 0.001,10e-4 0.255,0.053 0.504,-0.45 z m -16.181,-0.725 1.276,0.089 0.006,-0.122 0.32,0.014 -0.008,0.13 3.858,0.268 0.006,-0.119 0.319,0.013 -0.007,0.128 3.796,0.264 0.007,-0.131 0.319,0.014 -0.008,0.139 3.792,0.263 0.006,-0.128 0.32,0.014 -0.008,0.136 1.362,0.095 0.231,-0.228 -15.553,-1.064 z m 15.207,1.312 -0.005,-0.007 0.013,-0.014 -0.79,-0.055 0.001,0.149 0.796,0.056 z m -15.913,-1.003 0.284,0.02 0.02,-0.13 -0.141,-0.01 z m 0.657,0.046 0.923,0.066 0.014,-0.132 -0.917,-0.064 z m 5.113,0.226 -3.039,-0.212 v 0.134 l 3.025,0.215 z m 4.113,0.288 -2.976,-0.208 v 0.139 l 2.962,0.21 z m 4.11,0.287 -2.971,-0.207 v 0.144 l 2.956,0.21 z m 3.058,-0.438 -0.06,-0.004 0.023,0.003 v 0.001 z M 3.991,12.052 3.855,12.171 3.972,12.18 Z"/>

</svg>
